;FLAVOR:Marlin
;TIME:9908
;Filament used: 47.058m
;Layer height: 0.6
;MINX:-93.776
;MINY:-100.995
;MINZ:0.6
;MAXX:92.999
;MAXY:68.573
;MAXZ:129.4
;ARCWELDERPROCESSED
; Postprocessed by [ArcWelder](https://github.com/FormerLurker/ArcWelderLib)
; Copyright(C) 2020 - Brad Hochgesang
; resolution=0.05mm
; path_tolerance=5%
; max_radius=1000000.00mm
; allow_3d_arcs=True
; default_xyz_precision=3
; default_e_precision=5

;Generated with Cura_SteamEngine 4.13.0
M140 S85
M105
M190 S85
M104 S280
M105
M109 S280
M82 ;absolute extrusion mode
G92 E0
G28 ;Home
G1 Z15.0 F6000 ;Move the platform down 15mm
;Prime the extruder

G1 X0 Y112 Z0.2 F9000 ; Move slightly past edge of bed

G92 E0 ; Zero extruder position

G0 E1 F100 ; Extrude 1mm of filament

G92 E0 ; Zero again

G1 X0 Y0 F9000 ; Move back to center of bed

G92 E0
G1 F200 E3
G92 E0
G92 E0
G92 E0
G1 F3000 E-8
;LAYER_COUNT:214
;LAYER:0
M107 P1
G1 F6000 Z1.6
G0 F9000 X-21.162 Y-53.148 Z1.6
;TYPE:SKIRT
G1 F6000 Z0.6
G1 F3000 E0
G3 X-16.131 Y-57.160 I6.798 J3.364 E1.32576 F1800
G3 X57.246 Y-17.227 I15.746 J58.448 E19.72338
G1 X57.372 Y-16.599 E19.8512
G1 X58.17 Y-13.875 E20.41765
G3 X57.215 Y-7.563 I-7.224 J2.135 E21.73280
G3 X57.161 Y10.549 I-56.540 J8.888 E25.36235
G3 X58.124 Y16.918 I-6.311 J4.211 E26.68948
G3 X-13.150 Y60.497 I-58.489 J-15.585 E45.08766
G1 X-13.746 Y60.295 E45.21324
G1 X-16.51 Y59.624 E45.78085
G3 X-21.509 Y55.628 I1.765 J-7.333 E47.09944
G3 X-23.199 Y54.963 I10.481 J-29.115 E47.46190
G3 X-37.142 Y46.536 I22.482 J-52.946 E50.72404
G3 X-43.155 Y44.187 I-0.506 J-7.576 E52.05420
G3 X-45.260 Y-39.330 I42.756 J-42.863 E70.45296
G1 X-44.79 Y-39.743 E70.57782
G1 X-42.82 Y-41.805 E71.14693
G3 X-36.892 Y-44.134 I5.461 J5.192 E72.45874
G1 X-36.41 Y-44.522 E72.58222
G3 X-21.162 Y-53.148 I35.836 J45.558 E76.09133
G0 F9000 X-20.352 Y-52.981
G3 X-15.945 Y-56.382 I5.993 J3.210 E77.23534 F1800
G3 X56.480 Y-16.991 I15.555 J57.676 E95.39251
G1 X56.584 Y-16.444 E95.50362
G1 X57.403 Y-13.65 E96.08465
G3 X56.380 Y-7.760 I-6.467 J1.911 E97.32019
G3 X56.314 Y10.742 I-55.735 J9.052 E101.02901
G3 X57.357 Y16.691 I-5.447 J4.021 E102.27804
G3 X-12.971 Y59.716 I-57.726 J-15.367 E120.43551
G1 X-13.494 Y59.533 E120.54608
G1 X-16.321 Y58.847 E121.12662
G3 X-20.922 Y54.997 I1.577 J-6.559 E122.36687
G3 X-22.866 Y54.235 I10.812 J-30.444 E122.78359
G3 X-36.897 Y45.706 I22.194 J-52.317 E126.07181
G3 X-42.575 Y43.636 I-0.764 J-6.726 E127.32170
G3 X-44.673 Y-38.784 I42.174 J-42.310 E145.47958
G1 X-44.25 Y-39.149 E145.59107
G1 X-42.242 Y-41.252 E146.17134
G3 X-36.627 Y-43.310 I4.885 J4.640 E147.40742
G1 X-35.933 Y-43.879 E147.58651
G3 X-20.565 Y-52.525 I35.531 J45.174 E151.11891
G1 X-20.352 Y-52.981 E151.21935
G0 F9000 X-19.823 Y-52.246
G3 X-15.758 Y-55.604 I5.459 J2.469 E152.30823 F1800
G3 X55.714 Y-16.758 I15.367 J56.899 E170.22413
G1 X55.801 Y-16.27 E170.32305
G1 X56.635 Y-13.425 E170.91469
G3 X55.546 Y-7.954 I-5.818 J1.686 E172.07091
G3 X55.463 Y10.953 I-55.512 J9.210 E175.86204
G3 X56.590 Y16.463 I-4.588 J3.809 E177.03054
G3 X-12.790 Y58.935 I-56.956 J-15.136 E194.94702
G1 X-13.247 Y58.771 E195.04391
G1 X-16.133 Y58.07 E195.63659
G3 X-20.315 Y54.373 I1.390 J-5.786 E196.79548
G3 X-22.533 Y53.508 I12.893 J-36.335 E197.27061
G3 X-36.664 Y44.865 I21.908 J-51.692 E200.58823
G3 X-41.994 Y43.085 I-1.001 J-5.874 E201.75568
G3 X-44.088 Y-38.237 I41.585 J-41.759 E219.67241
G1 X-43.711 Y-38.556 E219.77096
G1 X-41.663 Y-40.7 E220.36265
G3 X-36.380 Y-42.472 I4.313 J4.096 E221.51940
G3 X-35.456 Y-43.237 I12.272 J13.882 E221.75882
G3 X-19.957 Y-51.898 I35.035 J44.498 E225.31617
G1 X-19.823 Y-52.246 E225.39059
G0 F9000 X-18.978 Y-52.157
G3 X-15.571 Y-54.826 I4.622 J2.390 E226.28080 F1800
G3 X54.946 Y-16.527 I15.180 J56.118 E243.95496
G1 X55.017 Y-16.101 E244.04115
G1 X55.867 Y-13.2 E244.64441
G3 X54.690 Y-8.215 I-4.943 J1.464 E245.71350
G1 X54.754 Y-7.846 E245.78824
G3 X54.607 Y11.192 I-54.517 J9.099 E249.60652
G3 X55.823 Y16.236 I-3.733 J3.569 E250.69100
G3 X-12.605 Y58.155 I-56.188 J-14.910 E268.36549
G1 X-13.003 Y58.006 E268.45029
G1 X-15.944 Y57.292 E269.05425
G3 X-19.680 Y53.759 I1.200 J-5.011 E270.12806
G3 X-22.200 Y52.780 I13.970 J-39.691 E270.66760
G3 X-36.452 Y44.006 I21.651 J-51.131 E274.02003
G3 X-41.414 Y42.534 I-1.212 J-5.014 E275.10171
G3 X-43.504 Y-37.687 I41.004 J-41.206 E292.77658
G1 X-43.175 Y-37.958 E292.86164
G1 X-41.085 Y-40.147 E293.46562
G3 X-36.156 Y-41.614 I3.741 J3.554 E294.53947
G3 X-34.979 Y-42.594 I15.527 J17.452 E294.84514
G3 X-19.328 Y-51.266 I34.504 J43.813 E298.43116
G3 X-18.978 Y-52.157 I3.734 J0.952 E298.62252
G0 F9000 X-17.554 Y-51.426
G3 X-15.198 Y-53.271 I3.194 J1.652 E299.23787 F1800
G1 X-11.943 Y-54.052 E299.90588
G3 X53.406 Y-16.078 I11.540 J55.357 E316.42600
G1 X53.445 Y-15.777 E316.48657
G1 X54.332 Y-12.75 E317.11604
G3 X52.940 Y-8.799 I-3.423 J1.015 E318.00880
G3 X53.169 Y-7.629 I-19.227 J4.371 E318.24674
G1 X53.601 Y-4.475 E318.88203
G3 X52.872 Y11.800 I-53.380 J5.763 E322.14546
G3 X54.289 Y15.782 I-2.015 J2.960 E323.04733
G1 X53.338 Y18.992 E323.71544
G3 X-12.224 Y56.598 I-53.699 J-17.666 E340.23565
G1 X-12.507 Y56.48 E340.29684
G1 X-15.566 Y55.737 E340.92504
G3 X-18.293 Y52.577 I0.833 J-3.475 E341.81396
G3 X-36.107 Y42.201 I17.961 J-51.317 E345.95280
G3 X-40.253 Y41.433 I-1.547 J-3.225 E346.85233
G3 X-49.034 Y-27.536 I39.862 J-40.119 E361.79274
G1 X-48.919 Y-27.73 E361.83775
G1 X-47.117 Y-30.551 E362.50576
G3 X-42.346 Y-36.578 I45.895 J31.429 E364.04111
G1 X-42.103 Y-36.763 E364.10205
G1 X-39.927 Y-39.042 E364.73087
G3 X-35.810 Y-39.812 I2.590 J2.455 E365.62353
G3 X-34.026 Y-41.310 I24.563 J27.441 E366.08843
G3 X-17.939 Y-50.045 I33.389 J42.310 E369.75927
G3 X-17.554 Y-51.426 I3.418 J0.209 E370.04735
G0 F9000 X-16.927 Y-50.883
G3 X-15.011 Y-52.493 I2.570 J1.113 E370.56427 F1800
G1 X-11.756 Y-53.274 E371.23227
G1 X-11.582 Y-53.31 E371.26773
G1 X-8.282 Y-53.883 E371.93614
G3 X12.896 Y-52.840 I7.885 J55.419 E376.19286
G3 X19.620 Y-50.733 I-13.447 J54.696 E377.59976
G1 X22.706 Y-49.437 E378.26771
G3 X52.509 Y-16.318 I-23.282 J50.920 E387.41320
G3 X52.657 Y-15.619 I-1.999 J0.788 E387.55623
G1 X53.564 Y-12.525 E388.19966
G3 X52.043 Y-9.203 I-2.668 J0.788 E388.99436
G3 X52.376 Y-7.520 I-24.833 J5.788 E389.33675
G3 X51.987 Y12.207 I-52.672 J8.829 E393.29646
G3 X53.522 Y15.554 I-1.148 J2.552 E394.09727
G1 X52.571 Y18.764 E394.76538
G1 X52.515 Y18.933 E394.80091
G3 X51.296 Y22.241 I-53.765 J-17.934 E395.50447
G1 X49.947 Y25.305 E396.17256
G3 X16.134 Y54.571 I-50.365 J-24.024 E405.35379
G3 X9.286 Y56.229 I-16.652 J-53.806 E406.76059
G3 X5.796 Y56.730 I-10.010 J-57.322 E407.46422
G3 X2.282 Y57.010 I-6.387 J-57.965 E408.16771
G1 X-1.064 Y57.07 E408.83555
G3 X-12.024 Y55.820 I0.872 J-56.319 E411.04083
G1 X-12.242 Y55.721 E411.08861
G1 X-15.378 Y54.96 E411.73259
G3 X-17.496 Y51.993 I0.650 J-2.703 E412.52517
G1 X-18.065 Y51.809 E412.64451
G3 X-35.996 Y41.218 I17.552 J-50.192 E416.82722
G3 X-39.673 Y40.882 I-1.647 J-2.259 E417.63093
G3 X-42.097 Y38.320 I41.812 J-41.988 E418.33480
G1 X-44.244 Y35.75 E419.00309
G3 X-55.905 Y-3.869 I43.892 J-34.444 E427.44471
G1 X-55.889 Y-4.046 E427.48017
G1 X-55.467 Y-7.367 E428.14824
G3 X-41.773 Y-36.016 I54.881 J8.635 E434.57463
G1 X-41.58 Y-36.154 E434.62197
G1 X-39.349 Y-38.49 E435.2666
G3 X-35.727 Y-38.834 I2.007 J1.890 E436.05911
G3 X-33.549 Y-40.667 I28.753 J31.955 E436.62721
G3 X-17.139 Y-49.470 I32.936 J41.700 E440.36268
G3 X-16.927 Y-50.883 I2.741 J-0.311 E440.65076
G0 F9000 X-16.081 Y-50.786
G3 X-14.825 Y-51.715 I1.723 J1.016 E440.97046 F1800
G3 X-11.445 Y-52.522 I14.954 J55.151 E441.66395
G1 X-8.145 Y-53.095 E442.33235
G3 X9.279 Y-52.788 I7.722 J56.315 E445.82426
G3 X12.682 Y-52.069 I-10.174 J56.567 E446.51837
G3 X16.025 Y-51.137 I-13.522 J54.963 E447.21096
G1 X19.19 Y-50.041 E447.87936
G1 X19.31 Y-49.995 E447.90501
G3 X22.510 Y-48.647 I-20.598 J53.370 E448.59796
G1 X25.511 Y-47.16 E449.26633
G1 X25.623 Y-47.1 E449.29169
G3 X28.630 Y-45.360 I-28.303 J52.380 E449.98500
G3 X31.522 Y-43.434 I-30.498 J48.929 E450.67841
G1 X34.187 Y-41.41 E451.34624
G3 X49.153 Y-22.482 I-35.407 J43.376 E456.20038
G3 X51.758 Y-16.043 I-56.559 J26.628 E457.58723
G1 X51.867 Y-15.471 E457.70344
G1 X52.796 Y-12.3 E458.36284
G3 X51.756 Y-9.942 I-1.918 J0.563 E458.92091
G1 X51.119 Y-9.736 E459.05451
G3 X51.583 Y-7.411 I-29.452 J7.087 E459.52766
G3 X51.046 Y12.745 I-51.691 J8.708 E463.57626
G1 X51.719 Y12.964 E463.71749
G3 X52.755 Y15.327 I-0.884 J1.796 E464.27616
G1 X51.804 Y18.537 E464.94427
G1 X51.764 Y18.658 E464.9697
G1 X50.611 Y21.802 E465.63798
G3 X43.787 Y34.013 I-53.464 J-21.866 E468.43670
G3 X41.633 Y36.739 I-49.649 J-37.017 E469.13005
G1 X39.397 Y39.232 E469.79835
G3 X22.410 Y51.322 I-39.848 J-38.009 E473.98400
G1 X19.324 Y52.618 E474.65195
G3 X-11.430 Y55.152 I-19.730 J-51.558 E480.89309
G1 X-11.974 Y54.964 E481.00795
G1 X-15.189 Y54.183 E481.6682
G3 X-16.712 Y52.103 I0.473 J-1.944 E482.22631
G1 X-16.571 Y51.445 E482.36061
G3 X-17.778 Y51.062 I4.778 J-17.151 E482.61333
G3 X-35.993 Y40.133 I17.288 J-49.457 E486.88202
G1 X-36.527 Y40.616 E487.02571
G3 X-39.093 Y40.332 I-1.114 J-1.665 E487.58469
G1 X-41.399 Y37.902 E488.25322
G3 X-54.019 Y13.325 I41.132 J-36.649 E493.82558
G3 X-54.671 Y9.911 I56.800 J-12.617 E494.51921
G1 X-55.094 Y6.59 E495.1873
G1 X-55.106 Y6.464 E495.21256
G1 X-55.318 Y3.124 E495.88044
G1 X-55.322 Y2.997 E495.90579
G1 X-55.322 Y-.352 E496.57412
G1 X-55.318 Y-.478 E496.59928
G1 X-55.107 Y-3.819 E497.26734
G1 X-55.095 Y-3.945 E497.2926
G1 X-54.673 Y-7.266 E497.96067
G3 X-41.492 Y-35.167 I54.641 J8.749 E504.20175
G1 X-41.054 Y-35.546 E504.31734
G1 X-38.77 Y-37.937 E504.9772
G3 X-36.208 Y-38.215 I1.446 J1.378 E505.53524
G1 X-35.724 Y-37.781 E505.66497
G1 X-35.604 Y-37.891 E505.69745
G1 X-33.171 Y-39.947 E506.33313
G3 X-16.205 Y-48.940 I32.701 J41.192 E510.18649
G1 X-16.353 Y-49.635 E510.32829
G3 X-16.081 Y-50.786 I2.005 J-0.134 E510.56747
G0 F9000 X-15.407 Y-50.353
G3 X-14.638 Y-50.937 I1.050 J0.584 E510.76514 F1800
G1 X-11.383 Y-51.718 E511.43315
G3 X2.314 Y-52.778 I11.213 J55.872 E514.18168
G3 X5.727 Y-52.500 I-3.732 J66.905 E514.86504
G1 X9.04 Y-52.019 E515.53311
G3 X19.001 Y-49.257 I-10.930 J58.761 E517.59875
G3 X22.155 Y-47.930 I-20.430 J52.970 E518.28161
G1 X25.156 Y-46.443 E518.94998
G3 X51.007 Y-15.767 I-25.678 J47.869 E527.14973
G1 X51.071 Y-15.345 E527.23491
G1 X52.029 Y-12.075 E527.9149
G3 X51.173 Y-10.575 I-1.152 J0.337 E528.29840
G1 X50.184 Y-10.323 E528.50207
G3 X50.081 Y13.320 I-50.088 J11.604 E533.26269
G1 X51.142 Y13.598 E533.48157
G3 X51.988 Y15.100 I-0.306 J1.161 E533.86406
G1 X51.037 Y18.31 E534.53217
G3 X15.707 Y53.029 I-51.581 J-17.154 E544.79720
G3 X12.409 Y53.941 I-17.552 J-57.053 E545.48006
G3 X9.056 Y54.646 I-15.416 J-64.992 E546.16382
G1 X5.741 Y55.127 E546.83229
G3 X-7.994 Y54.938 I-6.088 J-56.722 E549.58049
G1 X-11.293 Y54.364 E550.24873
G1 X-11.689 Y54.209 E550.3336
G1 X-15 Y53.405 E551.01355
G3 X-15.872 Y51.914 I0.283 J-1.166 E551.39720
G1 X-15.59 Y50.913 E551.60474
G3 X-17.491 Y50.315 I7.562 J-27.359 E552.00244
G3 X-31.795 Y42.631 I17.150 J-49.080 E555.25563
G1 X-34.328 Y40.577 E555.90643
G1 X-36.021 Y39.021 E556.3653
G1 X-36.788 Y39.798 E556.58318
G3 X-38.512 Y39.781 I-0.854 J-0.842 E556.96598
G3 X-40.869 Y37.294 I41.218 J-41.424 E557.64978
G1 X-43.016 Y34.724 E558.31807
G1 X-43.063 Y34.664 E558.33328
G1 X-45.043 Y31.963 E559.00161
G3 X-51.295 Y-17.172 I44.875 J-30.675 E569.26602
G1 X-50.056 Y-20.281 E569.9339
G3 X-43.026 Y-32.083 I52.046 J23.007 E572.68224
G1 X-40.878 Y-34.654 E573.35081
G1 X-40.547 Y-34.919 E573.43543
G1 X-38.192 Y-37.385 E574.11591
G3 X-36.465 Y-37.394 I0.868 J0.831 E574.49933
G1 X-35.743 Y-36.654 E574.70565
G3 X-35.088 Y-37.280 I12.246 J12.158 E574.88647
G1 X-32.655 Y-39.336 E575.52214
G3 X-15.230 Y-48.413 I32.287 J40.717 E579.46630
G1 X-15.515 Y-49.453 E579.6815
G3 X-15.407 Y-50.353 I1.155 J-0.318 E579.86650
G0 F9000 X-14.681 Y-50.005
G1 F1800 X-14.451 Y-50.159 E579.92174
G1 X-11.171 Y-50.945 E580.59483
G1 X-7.846 Y-51.522 E581.26828
G1 X-4.493 Y-51.888 E581.94139
G1 X-1.122 Y-52.041 E582.6148
G1 X2.249 Y-51.981 E583.28762
G1 X5.612 Y-51.708 E583.96095
G1 X8.95 Y-51.222 E584.63411
G1 X12.254 Y-50.527 E585.30789
G1 X15.502 Y-49.625 E585.98059
G1 X18.691 Y-48.52 E586.65411
G1 X21.8 Y-47.213 E587.32714
G1 X24.823 Y-45.714 E588.00051
G1 X27.744 Y-44.027 E588.67366
G1 X30.554 Y-42.16 E589.34692
G1 X33.219 Y-40.136 E590.01474
G1 X35.789 Y-37.911 E590.69312
G1 X38.195 Y-35.547 E591.36624
G1 X40.447 Y-33.035 E592.03949
G1 X42.537 Y-30.385 E592.71301
G1 X44.454 Y-27.61 E593.38608
G1 X46.19 Y-24.719 E594.05904
G1 X47.743 Y-21.722 E594.73265
G1 X49.103 Y-18.635 E595.40583
G1 X50.256 Y-15.492 E596.07392
G1 X50.261 Y-15.263 E596.11963
G1 X51.261 Y-11.85 E596.82936
G3 X50.976 Y-11.350 I-0.383 J0.113 E596.95581 F1800
G1 X49.215 Y-10.901 E597.31848
G1 X49.364 Y-10.343 E597.43374
G1 X49.998 Y-7.194 E598.07477
G1 X50.433 Y-4.015 E598.71508
G1 X50.668 Y-.813 E599.3558
G1 X50.7 Y2.396 E599.99622
G1 X50.531 Y5.603 E600.6371
G1 X50.162 Y8.791 E601.27755
G1 X49.599 Y11.927 E601.91337
G1 X49.116 Y13.894 E602.31757
G1 X50.939 Y14.372 E602.69367
G3 X51.221 Y14.873 I-0.102 J0.387 E602.81985
G1 X50.262 Y18.107 E603.49301
G1 X49.109 Y21.251 E604.16129
G1 X47.739 Y24.361 E604.83947
G1 X46.187 Y27.356 E605.51264
G1 X44.449 Y30.247 E606.1858
G1 X42.531 Y33.023 E606.85915
G1 X40.442 Y35.671 E607.53223
G1 X38.188 Y38.182 E608.2056
G1 X35.783 Y40.546 E608.87858
G1 X33.232 Y42.753 E609.55174
G1 X30.546 Y44.794 E610.22495
G1 X27.736 Y46.662 E610.89832
G1 X24.814 Y48.348 E611.57154
G1 X21.791 Y49.847 E612.24491
G1 X18.681 Y51.152 E612.91797
G1 X15.493 Y52.258 E613.59136
G1 X12.244 Y53.158 E614.26415
G1 X8.941 Y53.854 E614.93778
G1 X5.601 Y54.338 E615.61127
G1 X2.239 Y54.61 E616.28439
G1 X-1.132 Y54.67 E616.95721
G1 X-4.503 Y54.517 E617.63063
G1 X-7.857 Y54.15 E618.30395
G1 X-11.156 Y53.576 E618.97219
G1 X-11.356 Y53.467 E619.01765
G1 X-14.811 Y52.628 E619.72717
G3 X-15.102 Y52.131 I0.093 J-0.388 E619.85367
G1 X-14.609 Y50.382 E620.2163
G1 X-17.181 Y49.577 E620.75413
G1 X-20.202 Y48.416 E621.39999
G1 X-23.12 Y47.08 E622.04044
G1 X-25.95 Y45.561 E622.68141
G1 X-28.677 Y43.87 E623.32174
G1 X-31.292 Y42.01 E623.96214
G1 X-33.787 Y39.988 E624.60302
G1 X-36.047 Y37.911 E625.21556
G1 X-37.357 Y39.236 E625.5874
G3 X-37.932 Y39.230 I-0.285 J-0.280 E625.71375
G1 X-40.255 Y36.781 E626.38737
G1 X-42.418 Y34.191 E627.06077
G1 X-44.412 Y31.469 E627.73413
G1 X-46.227 Y28.628 E628.4069
G1 X-47.85 Y25.7 E629.07498
G1 X-49.307 Y22.628 E629.75349
G1 X-50.547 Y19.52 E630.42126
G1 X-51.604 Y16.289 E631.09967
G1 X-52.448 Y13.023 E631.77285
G1 X-53.084 Y9.709 E632.44626
G1 X-53.509 Y6.362 E633.11955
G1 X-53.722 Y2.997 E633.79242
G1 X-53.721 Y-.377 E634.46574
G1 X-53.508 Y-3.743 E635.1388
G1 X-53.082 Y-7.089 E635.81192
G1 X-52.447 Y-10.404 E636.48549
G1 X-51.601 Y-13.67 E637.15877
G1 X-50.552 Y-16.876 E637.83194
G1 X-49.313 Y-19.985 E638.49983
G1 X-47.857 Y-23.057 E639.17825
G1 X-46.222 Y-26.007 E639.85133
G1 X-44.406 Y-28.849 E640.52438
G1 X-42.412 Y-31.57 E641.19758
G1 X-40.264 Y-34.141 E641.86615
G1 X-40.069 Y-34.26 E641.91174
G1 X-37.613 Y-36.832 E642.62143
G3 X-37.038 Y-36.835 I0.289 J0.276 E642.74774
G1 X-35.762 Y-35.527 E643.1124
G1 X-34.571 Y-36.669 E643.44168
G1 X-32.138 Y-38.725 E644.07736
G1 X-29.541 Y-40.652 E644.7227
G1 X-26.847 Y-42.4 E645.36358
G1 X-24.051 Y-43.976 E646.00408
G3 X-18.187 Y-46.585 I23.980 J46.002 E647.28552
G1 X-15.145 Y-47.607 E647.92593
G1 X-14.246 Y-47.848 E648.11167
G1 X-14.744 Y-49.664 E648.48745
G3 X-14.681 Y-50.005 I0.389 J-0.104 E648.55840
G0 F9000 X-19.723 Y-50.279
G3 X-18.660 Y-50.646 I6.432 J16.908 E648.78284 F1800
G3 X-15.385 Y-54.049 I4.291 J0.852 E649.77815
G1 X-12.13 Y-54.83 E650.44616
G3 X54.177 Y-16.300 I11.726 J56.140 E667.20991
G1 X54.232 Y-15.934 E667.28377
G1 X55.099 Y-12.975 E667.89909
G3 X53.820 Y-8.479 I-4.182 J1.240 E668.88295
G1 X53.961 Y-7.737 E669.03367
G3 X53.745 Y11.470 I-53.760 J9.000 E672.88679
G3 X55.056 Y16.009 I-2.877 J3.290 E673.88253
G1 X54.105 Y19.219 E674.55064
G3 X-12.417 Y57.376 I-54.469 J-17.895 E691.31444
G1 X-12.753 Y57.244 E691.38648
