;FLAVOR:Marlin
;TIME:290
;Filament used: 1.3177m
;Layer height: 0.6
;MINX:-115.219
;MINY:-16.211
;MINZ:0.6
;MAXX:-40.457
;MAXY:58.545
;MAXZ:62.103
;ARCWELDERPROCESSED
; Postprocessed by [ArcWelder](https://github.com/FormerLurker/ArcWelderLib)
; Copyright(C) 2020 - Brad Hochgesang
; resolution=0.05mm
; path_tolerance=5%
; max_radius=1000000.00mm
; allow_3d_arcs=True
; default_xyz_precision=3
; default_e_precision=5

;Generated with Cura_SteamEngine 4.13.0
M140 S80
M105
M190 S80
M104 S255
M105
M109 S255
M82 ;absolute extrusion mode
G28 ;Home
G1 Z15.0 F6000 ;Move the platform down 15mm
;Prime the extruder
G92 E0
G1 F200 E3
G92 E0
G92 E0
G92 E0
G1 F3000 E-3
;LAYER_COUNT:103
;LAYER:0
M107 P1
G0 F9000 X-41.801 Y11.195 Z0.6
;TYPE:SKIRT
G1 F3000 E0
G3 X-53.783 Y-7.446 I-36.026 J9.985 E42.38514 F1800
G3 X-41.801 Y11.195 I-24.043 J28.626 E46.87450
G1 F3000 E43.8745
;MESH:caulk-tube-spout.stl
G0 F9000 X-61.713 Y2.505
G0 X-69.185 Y-.682
G1 F3000 E46.8745
G0 F9000 X-69.149 Y-.774
;TYPE:WALL-OUTER
G3 X-71.009 Y-1.423 I-8.698 J21.938 E76.07055 F1800
G3 X-69.149 Y-0.774 I-6.619 J21.960 E76.46377
G0 F9000 X-68.78 Y-.62
G0 X-68.819 Y-.528
G0 X-67.468 Y21.383
G0 X-67.649 Y23.111
G0 X-68.116 Y24.782
G0 X-68.854 Y26.354
G0 X-69.846 Y27.779
G0 X-71.06 Y29.02
G0 X-72.465 Y30.04
G0 X-74.02 Y30.812
G0 X-75.682 Y31.314
G0 X-78.275 Y31.591
G0 X-78.271 Y31.492
G2 X-79.133 Y31.419 I0.440 J-10.324 E89.24424 F1800
G1 X-78.271 Y31.492 E89.41687
G0 F9000 X-77.871 Y31.492
G0 X-78.305 Y32.282
;TYPE:SKIN
G2 X-79.232 Y32.203 I0.480 J-11.114 E103.17551 F1800
G1 X-78.305 Y32.282 E103.36117
G0 F9000 X-77.838 Y43.977
G3 X-76.861 Y43.956 I-0.002 J-22.810 E131.76455 F1800
G1 X-77.838 Y43.977 E131.95957
G0 F9000 X-96.558 Y33.549
G1 F1800 X-90.216 Y39.89 E133.74928
G1 X-90.075 Y40.031
G0 F9000 X-87.596 Y41.379
G1 F1800 X-98.053 Y30.923 E136.70033
G1 X-98.194 Y30.782
G0 F9000 X-98.897 Y28.947
G1 F1800 X-85.629 Y42.214 E140.4447
G1 X-85.488 Y42.355
G0 F9000 X-83.949 Y42.763
G1 F1800 X-99.439 Y27.273 E144.81632
G0 F9000 X-99.804 Y25.777
G1 F1800 X-82.445 Y43.137 E149.71554
G0 F9000 X-81.074 Y43.376
G1 F1800 X-100.052 Y24.398 E155.07154
G0 F9000 X-100.195 Y23.123
G1 F1800 X-79.79 Y43.528 E160.83028
G0 F9000 X-78.587 Y43.6
G1 F1800 X-100.269 Y21.918 E166.9494
G0 F9000 X-100.282 Y20.774
G1 F1800 X-77.448 Y43.607 E173.39351
G0 F9000 X-76.361 Y43.564
G1 F1800 X-100.235 Y19.69 E180.13127
G0 F9000 X-100.142 Y18.651
G1 F1800 X-75.323 Y43.47 E187.13573
G0 F9000 X-74.327 Y43.335
G1 F1800 X-100.006 Y17.655 E194.38304
G0 F9000 X-99.834 Y16.696
G1 F1800 X-73.367 Y43.163 E201.8526
G0 F9000 X-72.443 Y42.956
G1 F1800 X-99.627 Y15.772 E209.52451
G0 F9000 X-99.385 Y14.882
G1 F1800 X-88.237 Y26.03 E212.67072
G1 X-88.096 Y26.171
G0 F9000 X-88.904 Y24.232
G1 F1800 X-99.115 Y14.021 E215.55248
G0 F9000 X-98.818 Y13.186
G1 F1800 X-89.19 Y22.814 E218.26971
G0 F9000 X-89.308 Y21.566
G1 F1800 X-98.495 Y12.379 E220.86248
G0 F9000 X-98.145 Y11.597
G1 F1800 X-89.299 Y20.443 E223.35901
G0 F9000 X-89.185 Y19.425
G1 F1800 X-97.769 Y10.842 E225.78146
G0 F9000 X-97.37 Y10.11
G1 F1800 X-88.999 Y18.48 E228.1438
G0 F9000 X-88.752 Y17.596
G1 F1800 X-96.949 Y9.398 E230.45731
G0 F9000 X-96.508 Y8.709
G1 F1800 X-88.444 Y16.772 E232.733
G0 F9000 X-88.086 Y15.999
G1 F1800 X-96.044 Y8.041 E234.97892
G0 F9000 X-95.561 Y7.393
G1 F1800 X-87.682 Y15.272 E237.20255
G0 F9000 X-87.236 Y14.586
G1 F1800 X-95.057 Y6.766 E239.40966
G0 F9000 X-94.532 Y6.159
G1 F1800 X-86.75 Y13.941 E241.60591
G0 F9000 X-86.226 Y13.333
G1 F1800 X-93.985 Y5.575 E243.79552
G0 F9000 X-93.417 Y5.011
G1 F1800 X-85.664 Y12.764 E245.98359
G0 F9000 X-85.056 Y12.241
G1 F1800 X-92.831 Y4.466 E248.17786
G0 F9000 X-92.225 Y3.94
G1 F1800 X-84.408 Y11.758 E250.38413
G0 F9000 X-83.72 Y11.315
G1 F1800 X-91.599 Y3.435 E252.60789
G0 F9000 X-90.953 Y2.95
G1 F1800 X-82.99 Y10.913 E254.85522
G0 F9000 X-82.214 Y10.557
G1 F1800 X-90.286 Y2.486 E257.13318
G0 F9000 X-89.594 Y2.046
G1 F1800 X-81.388 Y10.252 E259.44909
G0 F9000 X-80.506 Y10.002
G1 F1800 X-88.881 Y1.627 E261.81269
G0 F9000 X-88.147 Y1.231
G1 F1800 X-79.559 Y9.818 E264.23627
G0 F9000 X-78.534 Y9.712
G1 F1800 X-87.389 Y0.857 E266.73534
G0 F9000 X-86.607 Y0.508
G1 F1800 X-77.414 Y9.7 E269.32967
G0 F9000 X-76.172 Y9.811
G1 F1800 X-85.801 Y0.183 E272.04704
G0 F9000 X-84.968 Y-.115
G1 F1800 X-74.736 Y10.116 E274.93459
G1 X-74.595 Y10.257
G0 F9000 X-72.928 Y10.793
G1 F1800 X-84.106 Y-.384 E278.08912
G0 F9000 X-83.215 Y-.625
G1 F1800 X-56.043 Y26.546 E285.7575
G0 F9000 X-56.284 Y27.437
G1 F1800 X-67.467 Y16.254 E288.91359
G1 X-67.608 Y16.113
G0 F9000 X-66.791 Y18.06
G1 F1800 X-56.553 Y28.299 E291.80311
G0 F9000 X-56.85 Y29.133
G1 F1800 X-66.473 Y19.51 E294.51893
G0 F9000 X-66.369 Y20.746
G1 F1800 X-57.173 Y29.942 E297.11424
G0 F9000 X-57.522 Y30.724
G1 F1800 X-66.385 Y21.861 E299.61557
G0 F9000 X-66.493 Y22.884
G1 F1800 X-57.898 Y31.479 E302.04127
G0 F9000 X-58.298 Y32.211
G1 F1800 X-66.677 Y23.832 E304.406
G0 F9000 X-66.926 Y24.714
G1 F1800 X-58.716 Y32.924 E306.72304
G0 F9000 X-59.158 Y33.613
G1 F1800 X-67.231 Y25.541 E309.00127
G0 F9000 X-67.583 Y26.319
G1 F1800 X-59.621 Y34.281 E311.24832
G0 F9000 X-60.105 Y34.929
G1 F1800 X-67.981 Y27.053 E313.4711
G0 F9000 X-68.423 Y27.742
G1 F1800 X-60.608 Y35.558 E315.6768
G0 F9000 X-61.132 Y36.164
G1 F1800 X-68.911 Y28.386 E317.87206
G0 F9000 X-69.44 Y28.988
G1 F1800 X-61.679 Y36.749 E320.06239
G0 F9000 X-62.246 Y37.314
G1 F1800 X-70.006 Y29.554 E322.25243
G0 F9000 X-70.61 Y30.081
G1 F1800 X-62.833 Y37.858 E324.44726
G0 F9000 X-63.438 Y38.384
G1 F1800 X-71.253 Y30.57 E326.65268
G0 F9000 X-71.936 Y31.017
G1 F1800 X-64.065 Y38.889 E328.87419
G0 F9000 X-64.71 Y39.375
G1 F1800 X-72.666 Y31.419 E331.11955
G0 F9000 X-73.445 Y31.771
G1 F1800 X-65.377 Y39.839 E333.39651
G0 F9000 X-66.069 Y40.279
G1 F1800 X-74.272 Y32.076 E335.71157
G0 F9000 X-75.154 Y32.326
G1 F1800 X-66.78 Y40.699 E338.07476
G0 F9000 X-67.515 Y41.096
G1 F1800 X-76.1 Y32.511 E340.49763
G0 F9000 X-77.12 Y32.622
G1 F1800 X-68.271 Y41.471 E342.99501
G0 F9000 X-69.053 Y41.82
G1 F1800 X-78.232 Y32.642 E345.58538
G0 F9000 X-79.478 Y32.526
G1 F1800 X-69.86 Y42.145 E348.29993
G0 F9000 X-70.691 Y42.445
G1 F1800 X-80.912 Y32.224 E351.18451
G1 X-81.053 Y32.083
G0 F9000 X-82.709 Y31.558
G1 F1800 X-71.552 Y42.715 E354.33326
G1 X-71.411 Y42.856
G0 F9000 X-55.836 Y25.622
G1 F1800 X-82.29 Y-.831 E361.79901
G0 F9000 X-81.33 Y-1.003
G1 F1800 X-55.663 Y24.663 E369.04265
G0 F9000 X-55.529 Y23.666
G1 F1800 X-80.333 Y-1.137 E376.04273
G0 F9000 X-79.294 Y-1.23
G1 F1800 X-55.437 Y22.626 E382.77555
G0 F9000 X-55.391 Y21.541
G1 F1800 X-78.207 Y-1.274 E389.21458
G0 F9000 X-77.067 Y-1.265
G1 F1800 X-55.405 Y20.396 E395.32792
G0 F9000 X-55.479 Y19.19
G1 F1800 X-75.861 Y-1.191 E401.08002
G0 F9000 X-74.577 Y-1.038
G1 F1800 X-55.625 Y17.913 E406.42855
G0 F9000 X-55.874 Y16.533
G1 F1800 X-73.205 Y-.797 E411.31959
G0 F9000 X-71.697 Y-.421
G1 F1800 X-56.243 Y15.032 E415.6809
G1 X-56.102 Y15.173
G0 F9000 X-56.792 Y13.352
G1 F1800 X-70.014 Y0.13 E419.41243
G1 X-70.155 Y-0.011
G0 F9000 X-68.042 Y0.97
G1 F1800 X-57.639 Y11.373 E422.34839
G1 X-57.498 Y11.514
G0 F9000 X-59.154 Y8.727
G1 F1800 X-65.413 Y2.468 E424.11481
G1 X-65.554 Y2.327
;MESH:NONMESH
G0 F3600 X-65.554 Y2.327 Z1.2
G0 F9000 X-67.522 Y22.252
G0 X-67.848 Y23.957
G0 X-68.452 Y25.584
G0 X-69.321 Y27.086
G0 X-70.427 Y28.424
G0 X-71.741 Y29.56
G0 X-73.226 Y30.458
G0 X-76.513 Y31.684
;TIME_ELAPSED:77.429630
;LAYER:1
M106 S255 P1
;TYPE:WALL-OUTER
;MESH:caulk-tube-spout.stl
G3 X-75.626 Y31.534 I-1.322 J-10.517 E437.22242 F1815
G1 X-76.513 Y31.684 E437.40195
G0 F9000 X-76.911 Y31.717
G0 X-76.918 Y31.618
G0 X-78.271 Y31.492
G2 X-79.133 Y31.419 I0.440 J-10.324 E444.73952 F1815
G1 X-78.271 Y31.492 E444.79612
G0 F9000 X-77.871 Y31.492
;MESH:NONMESH
G0 F3600 X-77.871 Y31.492 Z1.8
G0 F9000 X-77.871 Y31.592
G0 X-75.682 Y31.314
G0 X-74.02 Y30.812
G0 X-72.465 Y30.04
G0 X-71.06 Y29.02
G0 X-69.846 Y27.779
G0 X-68.854 Y26.354
G0 X-68.116 Y24.782
G0 X-67.649 Y23.111
G0 X-67.468 Y21.383
G0 X-67.859 Y17.933
G0 X-67.754 Y17.9
;TIME_ELAPSED:82.182790
;LAYER:2
;TYPE:WALL-OUTER
;MESH:caulk-tube-spout.stl
G3 X-68.069 Y17.052 I-10.085 J3.264 E457.90269 F1830
G1 X-67.754 Y17.9 E458.08321
G0 F9000 X-68.01 Y17.974
G2 X-67.777 Y18.808 I-9.827 J3.195 E470.86351 F1830
G1 X-68.01 Y17.974 E471.03631
G0 F9000 X-67.631 Y18.308
G3 X-67.754 Y17.900 Z2.400 I-10.208 J2.855 E484.23619 F1830
;TIME_ELAPSED:88.706227
;LAYER:3
;TYPE:WALL-OUTER
;MESH:caulk-tube-spout.stl
G3 X-88.410 Y20.955 Z2.730 I-10.074 J3.246 E491.57319
G3 X-67.665 Y18.336 Z3.000 I10.565 J0.214 E497.58185
;TIME_ELAPSED:90.906418
;LAYER:4
;TYPE:WALL-OUTER
;MESH:caulk-tube-spout.stl
G3 X-88.072 Y18.774 Z3.346 I-10.148 J2.812 E505.23515
G3 X-67.637 Y18.766 Z3.600 I10.218 J2.393 E510.84812
;TIME_ELAPSED:93.093566
;LAYER:5
;TYPE:WALL-OUTER
;MESH:caulk-tube-spout.stl
G3 X-82.852 Y12.030 Z4.025 I-10.167 J2.412 E520.10982
G3 X-67.715 Y18.783 Z4.200 I5.003 J9.128 E523.93478
;TIME_ELAPSED:95.251204
;LAYER:6
;TYPE:WALL-OUTER
;MESH:caulk-tube-spout.stl
G3 X-84.602 Y13.343 Z4.607 I-10.089 J2.387 E532.68575
G3 X-67.896 Y18.400 Z4.800 I6.751 J7.820 E536.83335
;TIME_ELAPSED:97.377940
;LAYER:7
;TYPE:WALL-OUTER
;MESH:caulk-tube-spout.stl
G3 X-84.842 Y13.666 Z5.207 I-9.908 J2.769 E545.52054
G3 X-68.095 Y18.015 Z5.400 I6.992 J7.496 E549.62951
;TIME_ELAPSED:99.487850
;LAYER:8
;TYPE:WALL-OUTER
;MESH:caulk-tube-spout.stl
G3 X-87.057 Y16.832 Z5.770 I-9.714 J3.140 E557.56121
G3 X-68.055 Y18.427 Z6.000 I9.204 J4.334 E562.49135
;TIME_ELAPSED:101.608552
;LAYER:9
;TYPE:WALL-OUTER
;MESH:caulk-tube-spout.stl
G3 X-82.338 Y12.123 Z6.432 I-9.747 J2.752 E571.63497
G3 X-68.132 Y18.450 Z6.600 I4.487 J9.037 E575.17744
;TIME_ELAPSED:103.700379
;LAYER:10
;TYPE:WALL-OUTER
;MESH:caulk-tube-spout.stl
G3 X-83.014 Y12.583 Z7.025 I-9.672 J2.726 E584.08665
G3 X-68.209 Y18.471 Z7.200 I5.161 J8.579 E587.76266
;TIME_ELAPSED:105.775632
;LAYER:11
;TYPE:WALL-OUTER
;MESH:caulk-tube-spout.stl
G3 X-84.007 Y13.371 Z7.615 I-9.593 J2.698 E596.34488
G3 X-68.398 Y18.119 Z7.800 I6.156 J7.792 E600.16465
;TIME_ELAPSED:107.820783
;LAYER:12
;TYPE:WALL-OUTER
;MESH:caulk-tube-spout.stl
G3 X-83.269 Y12.934 Z8.225 I-9.405 J3.057 E608.92983
G3 X-68.470 Y18.159 Z8.400 I5.417 J8.228 E612.55254
;TIME_ELAPSED:109.863616
;LAYER:13
;TYPE:WALL-OUTER
;MESH:caulk-tube-spout.stl
G3 X-84.224 Y13.758 Z8.810 I-9.332 J3.009 E620.98898
G3 X-68.440 Y18.536 Z9.000 I6.374 J7.404 E624.90579
;TIME_ELAPSED:111.900758
;LAYER:14
;TYPE:WALL-OUTER
;MESH:caulk-tube-spout.stl
G3 X-82.867 Y12.870 Z9.425 I-9.364 J2.641 E633.52705
G3 X-68.517 Y18.557 Z9.600 I5.015 J8.293 E637.08989
;TIME_ELAPSED:113.910111
;LAYER:15
;TYPE:WALL-OUTER
;MESH:caulk-tube-spout.stl
G3 X-83.171 Y13.159 Z10.023 I-9.284 J2.614 E645.55403 F1805
G3 X-68.701 Y18.223 Z10.200 I5.321 J8.002 E649.09466
;TIME_ELAPSED:115.917668
;LAYER:16
;TYPE:WALL-OUTER
;MESH:caulk-tube-spout.stl
G3 X-83.119 Y13.219 Z10.624 I-9.102 J2.953 E657.56882 F1802
G3 X-68.776 Y18.250 Z10.800 I5.268 J7.943 E661.07884
;TIME_ELAPSED:117.925212
;LAYER:17
;TYPE:WALL-OUTER
;MESH:caulk-tube-spout.stl
G3 X-82.389 Y12.872 Z11.232 I-9.025 J2.927 E669.64130 F1786
G3 X-68.852 Y18.275 Z11.400 I4.538 J8.290 E672.96211
;TIME_ELAPSED:119.932694
;LAYER:18
;TYPE:WALL-OUTER
;MESH:caulk-tube-spout.stl
G3 X-83.964 Y14.060 Z11.810 I-8.951 J2.893 E681.05569 F1782
G3 X-68.821 Y18.658 Z12.000 I6.112 J7.105 E684.81526
;TIME_ELAPSED:121.940158
;LAYER:19
;TYPE:WALL-OUTER
;MESH:caulk-tube-spout.stl
G3 X-81.967 Y12.833 Z12.433 I-8.981 J2.521 E693.23665 F1756
G3 X-68.902 Y18.665 Z12.600 I4.117 J8.327 E696.49477
;TIME_ELAPSED:123.947516
;LAYER:20
;TYPE:WALL-OUTER
;MESH:caulk-tube-spout.stl
G3 X-83.549 Y13.927 Z13.015 I-8.900 J2.506 E704.46023 F1730
G3 X-69.079 Y18.353 Z13.200 I5.699 J7.235 E708.00280
;TIME_ELAPSED:125.954771
;LAYER:21
;TYPE:WALL-OUTER
;MESH:caulk-tube-spout.stl
G3 X-84.366 Y14.765 Z13.602 I-8.725 J2.815 E715.73632 F1736
G3 X-69.054 Y18.722 Z13.800 I6.514 J6.398 E719.55205
;TIME_ELAPSED:127.962050
;LAYER:22
;TYPE:WALL-OUTER
;MESH:caulk-tube-spout.stl
G3 X-81.868 Y13.052 Z14.233 I-8.749 J2.458 E727.75526 F1711
G3 X-69.134 Y18.729 Z14.400 I4.018 J8.107 E730.93076
;TIME_ELAPSED:129.969225
;LAYER:23
;TYPE:WALL-OUTER
;MESH:caulk-tube-spout.stl
G3 X-83.421 Y14.132 Z14.815 I-8.669 J2.442 E738.68435 F1685
G3 X-69.313 Y18.414 Z15.000 I5.570 J7.029 E742.13728
;TIME_ELAPSED:131.976297
;LAYER:24
;TYPE:WALL-OUTER
;MESH:caulk-tube-spout.stl
G3 X-82.133 Y13.371 Z15.432 I-8.489 J2.763 E750.19290 F1681
G3 X-69.382 Y18.456 Z15.600 I4.283 J7.790 E753.32191
;TIME_ELAPSED:133.983354
;LAYER:25
;TYPE:WALL-OUTER
;MESH:caulk-tube-spout.stl
G3 X-82.081 Y13.433 Z16.032 I-8.419 J2.721 E761.30477 F1666
G3 X-69.458 Y18.482 Z16.200 I4.231 J7.727 E764.40286
;TIME_ELAPSED:135.990350
;LAYER:26
;TYPE:WALL-OUTER
;MESH:caulk-tube-spout.stl
G3 X-82.685 Y13.892 Z16.624 I-8.345 J2.694 E772.16331 F1650
G3 X-69.539 Y18.492 Z16.800 I4.834 J7.270 E775.38004
;TIME_ELAPSED:137.997282
;LAYER:27
;TYPE:WALL-OUTER
;MESH:caulk-tube-spout.stl
G3 X-83.493 Y14.605 Z17.210 I-8.264 J2.677 E782.85533 F1645
G3 X-69.520 Y18.836 Z17.400 I5.641 J6.558 E786.32249
;TIME_ELAPSED:140.004193
;LAYER:28
;TYPE:WALL-OUTER
;MESH:caulk-tube-spout.stl
G3 X-81.666 Y13.488 Z17.832 I-8.282 J2.344 E794.09282 F1621
G3 X-69.596 Y18.860 Z18.000 I3.816 J7.671 E797.10270
;TIME_ELAPSED:142.011007
;LAYER:29
;TYPE:WALL-OUTER
;MESH:caulk-tube-spout.stl
G3 X-81.618 Y13.553 Z18.433 I-8.206 J2.319 E804.80319 F1605
G3 X-69.673 Y18.880 Z18.600 I3.768 J7.606 E807.78199
;TIME_ELAPSED:144.017759
;LAYER:30
;TYPE:WALL-OUTER
;MESH:caulk-tube-spout.stl
G3 X-82.165 Y13.941 Z19.025 I-8.131 J2.297 E815.27805 F1590
G3 X-69.751 Y18.900 Z19.200 I4.314 J7.219 E818.36055
;TIME_ELAPSED:146.024451
;LAYER:31
;TYPE:WALL-OUTER
;MESH:caulk-tube-spout.stl
G3 X-81.563 Y13.705 Z19.632 I-8.051 J2.280 E825.91331 F1575
G3 X-69.827 Y18.923 Z19.800 I3.714 J7.455 E828.83953
;TIME_ELAPSED:148.031083
;LAYER:32
;TYPE:WALL-OUTER
;MESH:caulk-tube-spout.stl
G3 X-82.088 Y14.081 Z20.225 I-7.977 J2.254 E836.19257 F1560
G3 X-69.904 Y18.945 Z20.400 I4.236 J7.082 E839.21814
;TIME_ELAPSED:150.037655
;LAYER:33
;TYPE:WALL-OUTER
;MESH:caulk-tube-spout.stl
G3 X-82.938 Y14.770 Z20.815 I-7.899 J2.226 E846.27963 F1535
G3 X-70.069 Y18.674 Z21.000 I5.087 J6.394 E849.43118
;TIME_ELAPSED:152.044127
;LAYER:34
;TYPE:WALL-OUTER
;MESH:caulk-tube-spout.stl
G3 X-82.312 Y14.412 Z21.424 I-7.734 J2.502 E856.63036 F1530
G3 X-70.145 Y18.700 Z21.600 I4.460 J6.749 E859.60931
;TIME_ELAPSED:154.050578
;LAYER:35
;TYPE:WALL-OUTER
;MESH:caulk-tube-spout.stl
G3 X-82.548 Y14.674 Z22.018 I-7.657 J2.471 E866.66581 F1524
G3 X-70.133 Y19.022 Z22.200 I4.697 J6.487 E869.74531
;TIME_ELAPSED:156.057005
;LAYER:36
;TYPE:WALL-OUTER
;MESH:caulk-tube-spout.stl
G3 X-81.379 Y14.059 Z22.632 I-7.670 J2.157 E876.93562 F1500
G3 X-70.210 Y19.044 Z22.800 I3.529 J7.098 E879.72268
;TIME_ELAPSED:158.063336
;LAYER:37
;TYPE:WALL-OUTER
;MESH:caulk-tube-spout.stl
G3 X-82.208 Y14.635 Z23.223 I-7.592 J2.130 E886.63717 F1475
G3 X-70.372 Y18.776 Z23.400 I4.359 J6.526 E889.53537
;TIME_ELAPSED:160.069569
;LAYER:38
;TYPE:WALL-OUTER
;MESH:caulk-tube-spout.stl
G3 X-82.917 Y15.272 Z23.810 I-7.430 J2.392 E896.25102 F1478
G3 X-70.367 Y19.075 Z24.000 I5.067 J5.889 E899.36563
;TIME_ELAPSED:162.075812
;LAYER:39
;TYPE:WALL-OUTER
;MESH:caulk-tube-spout.stl
G3 X-82.124 Y14.770 Z24.423 I-7.435 J2.097 E906.14136 F1446
G3 X-70.524 Y18.827 Z24.600 I4.274 J6.391 E908.98201
;TIME_ELAPSED:164.081928
;LAYER:40
;TYPE:WALL-OUTER
;MESH:caulk-tube-spout.stl
G3 X-81.503 Y14.485 Z25.032 I-7.278 J2.351 E915.88140 F1440
G3 X-70.600 Y18.854 Z25.200 I3.653 J6.674 E918.55853
;TIME_ELAPSED:166.088021
;LAYER:41
;TYPE:WALL-OUTER
;MESH:caulk-tube-spout.stl
G3 X-82.277 Y15.071 Z25.618 I-7.202 J2.319 E925.18998 F1432
G3 X-70.598 Y19.138 Z25.800 I4.427 J6.090 E928.08494
;TIME_ELAPSED:168.094084
;LAYER:42
;TYPE:WALL-OUTER
;MESH:caulk-tube-spout.stl
G3 X-82.482 Y15.326 Z26.215 I-7.206 J2.034 E934.52942 F1401
G3 X-70.751 Y18.905 Z26.400 I4.630 J5.838 E937.40356
;TIME_ELAPSED:170.100023
;LAYER:43
;TYPE:WALL-OUTER
;MESH:caulk-tube-spout.stl
